icons/op-import-24.svg

<svg width="24" height="24" viewBox="0 0 24 24" fill="none" xmlns="http://www.w3.org/2000/svg">
<path d="M18 4H8.73786V9H10.6019V6H16.1359V18H10.6019V15H8.73786V20H18V4Z" fill="black"/>
<path d="M11.534 7.875L15.3495 12L11.534 16.125V13H6V11H11.534V7.875Z" fill="black"/>
</svg>

<svg xmlns="http://www.w3.org/2000/svg" width="24" height="24" viewBox="0 0 24 24"><path d="M18 4H8.738v5h1.864V6h5.534v12h-5.534v-3H8.738v5H18V4Z"/><path d="M11.534 7.875 15.35 12l-3.816 4.125V13H6v-2h5.534V7.875Z"/></svg>
